bicons/scalable/devices/server-user.svg

<?xml version="1.0" encoding="UTF-8" standalone="no"?>
<!-- Created with Inkscape (http://www.inkscape.org/) -->

<svg
   xmlns:dc="http://purl.org/dc/elements/1.1/"
   xmlns:cc="http://creativecommons.org/ns#"
   xmlns:rdf="http://www.w3.org/1999/02/22-rdf-syntax-ns#"
   xmlns:svg="http://www.w3.org/2000/svg"
   xmlns="http://www.w3.org/2000/svg"
   xmlns:xlink="http://www.w3.org/1999/xlink"
   xmlns:sodipodi="http://sodipodi.sourceforge.net/DTD/sodipodi-0.dtd"
   xmlns:inkscape="http://www.inkscape.org/namespaces/inkscape"
   width="210mm"
   height="297mm"
   viewBox="0 0 744.09448819 1052.3622047"
   id="svg2"
   version="1.1"
   inkscape:version="0.91 r13725"
   inkscape:export-xdpi="4"
   inkscape:export-ydpi="4"
   sodipodi:docname="server-user.svg">
  <defs
     id="defs4">
    <linearGradient
       inkscape:collect="always"
       xlink:href="#linearGradient4259"
       id="linearGradient4265"
       x1="36.360001"
       y1="399.99997"
       x2="363.59998"
       y2="18.179979"
       gradientUnits="userSpaceOnUse"
       gradientTransform="translate(192.99855,322.36222)" />
    <linearGradient
       inkscape:collect="always"
       id="linearGradient4259">
      <stop
         style="stop-color:#4e505d;stop-opacity:1;"
         offset="0"
         id="stop4261" />
      <stop
         style="stop-color:#7a859c;stop-opacity:1"
         offset="1"
         id="stop4263" />
    </linearGradient>
  </defs>
  <sodipodi:namedview
     id="base"
     pagecolor="#ffffff"
     bordercolor="#666666"
     borderopacity="1.0"
     inkscape:pageopacity="0.0"
     inkscape:pageshadow="2"
     inkscape:zoom="0.70710678"
     inkscape:cx="170.99439"
     inkscape:cy="516.76111"
     inkscape:document-units="px"
     inkscape:current-layer="layer1"
     showgrid="false"
     showguides="true"
     inkscape:guide-bbox="true"
     inkscape:window-width="1600"
     inkscape:window-height="837"
     inkscape:window-x="-4"
     inkscape:window-y="-4"
     inkscape:window-maximized="1"
     inkscape:snap-bbox="true"
     inkscape:bbox-nodes="true">
    <sodipodi:guide
       position="560,730.00002"
       orientation="0,1"
       id="guide3338" />
    <sodipodi:guide
       position="560,330.00001"
       orientation="0,1"
       id="guide3340" />
    <sodipodi:guide
       position="190,475.00001"
       orientation="1,0"
       id="guide3344" />
    <sodipodi:guide
       position="593.00001,570.00001"
       orientation="1,0"
       id="guide3346" />
    <inkscape:grid
       type="xygrid"
       id="grid3440" />
    <sodipodi:guide
       position="-111.01577,704.98548"
       orientation="0,1"
       id="guide4151" />
    <sodipodi:guide
       position="54.25,355.00001"
       orientation="0,1"
       id="guide4153" />
    <sodipodi:guide
       position="215,442.00001"
       orientation="1,0"
       id="guide4155" />
    <sodipodi:guide
       position="564.97832,467.39759"
       orientation="1,0"
       id="guide4157" />
  </sodipodi:namedview>
  <metadata
     id="metadata7">
    <rdf:RDF>
      <cc:Work
         rdf:about="">
        <dc:format>image/svg+xml</dc:format>
        <dc:type
           rdf:resource="http://purl.org/dc/dcmitype/StillImage" />
        <dc:title>server user</dc:title>
        <dc:date>June 2015</dc:date>
        <dc:creator>
          <cc:Agent>
            <dc:title>Johannes Hechler</dc:title>
          </cc:Agent>
        </dc:creator>
        <dc:rights>
          <cc:Agent>
            <dc:title>Johannes Hechler</dc:title>
          </cc:Agent>
        </dc:rights>
        <dc:publisher>
          <cc:Agent>
            <dc:title>RRZE</dc:title>
          </cc:Agent>
        </dc:publisher>
        <dc:contributor>
          <cc:Agent>
            <dc:title>Ute Weber, Hendrik Eggers, Joanna Barbach</dc:title>
          </cc:Agent>
        </dc:contributor>
        <dc:subject>
          <rdf:Bag>
            <rdf:li>server</rdf:li>
            <rdf:li>rdbms</rdf:li>
            <rdf:li>dba</rdf:li>
            <rdf:li>server</rdf:li>
            <rdf:li>icon</rdf:li>
            <rdf:li>user</rdf:li>
          </rdf:Bag>
        </dc:subject>
        <cc:license
           rdf:resource="http://creativecommons.org/licenses/by-sa/3.0/" />
      </cc:Work>
      <cc:License
         rdf:about="http://creativecommons.org/licenses/by-sa/3.0/">
        <cc:permits
           rdf:resource="http://creativecommons.org/ns#Reproduction" />
        <cc:permits
           rdf:resource="http://creativecommons.org/ns#Distribution" />
        <cc:requires
           rdf:resource="http://creativecommons.org/ns#Notice" />
        <cc:requires
           rdf:resource="http://creativecommons.org/ns#Attribution" />
        <cc:permits
           rdf:resource="http://creativecommons.org/ns#DerivativeWorks" />
        <cc:requires
           rdf:resource="http://creativecommons.org/ns#ShareAlike" />
      </cc:License>
    </rdf:RDF>
  </metadata>
  <g
     inkscape:label="Ebene 1"
     inkscape:groupmode="layer"
     id="layer1">
    <g
       id="g4175">
      <path
         inkscape:connector-curvature="0"
         id="rect4214"
         d="m 192.99855,322.3622 400.00146,0 0,399.99998 -400.00146,0 z"
         style="opacity:1;fill:none;fill-opacity:1;stroke:none;stroke-width:35;stroke-linejoin:round;stroke-miterlimit:4;stroke-dasharray:none;stroke-opacity:1" />
      <path
         id="rect4221"
         d="m 227.65234,336.36133 c -11.47667,0 -20.71679,9.24012 -20.71679,20.71679 l 0,62.14649 c 0,11.47667 9.24012,20.7168 20.71679,20.7168 l 19.88477,0 0,30.85742 -19.50977,0 c -11.47667,0 -20.71679,9.24013 -20.71679,20.71679 l 0,62.14649 c 0,11.47667 9.24012,20.7168 20.71679,20.7168 l 19.50977,0 0,30.41992 -19.50977,0 c -11.47667,0 -20.71679,9.24013 -20.71679,20.71679 l 0,62.14649 c 0,11.47667 9.24012,20.7168 20.71679,20.7168 l 185.36719,0 c -1.37753,-9.14197 -2.11328,-18.59949 -2.11328,-28.29297 0,-27.5455 5.57609,-53.47113 15.85156,-75.28711 l -155.91406,0 0,-30.41992 175.69727,0 c 5.26818,-5.94031 11.06329,-11.20798 17.3496,-15.69336 -10.03093,-11.21696 -16.16796,-25.95778 -16.16796,-42.05274 0,-17.97671 7.65652,-34.26137 19.8457,-45.83398 l -196.72461,0 0,-30.85742 243.51953,0 0,13.33789 c 8.40582,0.39107 16.40374,2.44454 23.67969,5.82226 l 0,-19.16015 19.17969,0 c 11.47667,0 20.71679,-9.24013 20.71679,-20.7168 l 0,-62.14649 c 0,-11.47667 -9.24012,-20.71679 -20.71679,-20.71679 l -329.94532,0 z m 327.95313,134.4375 c 12.18897,11.57264 19.8457,27.85702 19.8457,45.83398 0,16.45659 -6.41165,31.50107 -16.8457,42.80664 4.29899,3.13807 8.35655,6.65907 12.17383,10.50977 4.81675,-3.78697 7.91015,-9.65744 7.91015,-16.28711 l 0,-62.14649 c 0,-11.47667 -9.24012,-20.71679 -20.71679,-20.71679 l -2.36719,0 z m -43.83008,17.40625 c -16.09585,0 -28.67773,12.57177 -28.67773,28.42773 0,15.85597 12.58188,28.42774 28.67773,28.42774 16.09585,0 28.67578,-12.57177 28.67578,-28.42774 0,-15.85596 -12.57993,-28.42773 -28.67578,-28.42773 z m 24.50781,98.5 c -6.77377,2.54099 -14.012,4.1503 -21.54492,4.51172 l 0,13.58203 -46.5332,0 c -12.8102,18.26577 -21.92383,44.91398 -21.92383,75.28711 0,8.30982 0.77007,16.30685 1.98633,24.02344 0.50331,0.28691 1.166,0.65096 2.2832,0.73046 a 17.50175,17.50175 0 0 1 0.17774,0.0215 l 118.82812,0 c 1.68319,-1.13312 3.18619,-2.5097 4.4668,-4.07617 0.92278,-6.68351 1.47656,-13.58009 1.47656,-20.70118 0,-30.35798 -9.10114,-56.97427 -21.89453,-75.28515 l -15.1875,0 0,-16.48438 c -0.70797,-0.55817 -1.41944,-1.09759 -2.13477,-1.60937 z"
         style="opacity:1;fill:url(#linearGradient4265);fill-opacity:1;stroke:none;stroke-width:35;stroke-linejoin:round;stroke-miterlimit:4;stroke-dasharray:none;stroke-opacity:1"
         inkscape:connector-curvature="0" />
      <rect
         ry="10.5"
         y="396.36224"
         x="226.99855"
         height="21"
         width="78.903175"
         id="rect4229"
         style="opacity:1;fill:#ffffff;fill-opacity:1;stroke:none;stroke-width:35;stroke-linejoin:round;stroke-miterlimit:4;stroke-dasharray:none;stroke-opacity:1" />
      <rect
         style="opacity:1;fill:#ffffff;fill-opacity:1;stroke:none;stroke-width:35;stroke-linejoin:round;stroke-miterlimit:4;stroke-dasharray:none;stroke-opacity:1"
         id="rect4239"
         width="78.903175"
         height="21"
         x="227.33865"
         y="664.79968"
         ry="10.5" />
      <rect
         ry="10.5"
         y="530.79968"
         x="227.33865"
         height="21"
         width="78.903175"
         id="rect4245"
         style="opacity:1;fill:#ffffff;fill-opacity:1;stroke:none;stroke-width:35;stroke-linejoin:round;stroke-miterlimit:4;stroke-dasharray:none;stroke-opacity:1" />
      <path
         sodipodi:nodetypes="cccsccccccscscc"
         inkscape:connector-curvature="0"
         id="path2176"
         d="m 484.80806,566.60545 c -0.0826,0.0731 -0.15791,0.15162 -0.24317,0.22256 l -4.60233,2.4935 c -30.01821,17.78249 -51.18071,60.67467 -51.18071,110.76377 0,10.75847 0.98129,21.18238 2.81222,31.09942 2.71583,6.07555 9.53941,10.52856 17.71555,11.11017 l 0,0.0673 121.52087,0 0,-0.006 c 9.17692,-0.12954 16.906,-5.12317 19.50291,-11.96882 1.73768,-9.67824 2.66661,-19.83136 2.66661,-30.3026 0,-52.43814 -23.19615,-96.9881 -55.46431,-113.09653 -7.70407,4.32552 -16.58466,6.80734 -26.02862,6.80734 -9.71922,0 -18.84199,-2.62829 -26.69902,-7.19064 z"
         style="fill:#99b000;fill-opacity:1;stroke:none;stroke-width:41.15159225;stroke-linecap:round;stroke-linejoin:round;stroke-opacity:1" />
      <ellipse
         ry="45.92733"
         rx="46.176422"
         cx="511.77481"
         cy="516.63239"
         id="circle2187-6"
         style="fill:#99b000;fill-opacity:1;stroke:none;stroke-width:14;stroke-miterlimit:4;stroke-dasharray:none;stroke-opacity:1" />
    </g>
  </g>
</svg>

<?xml version="1.0" encoding="UTF-8" standalone="no"?>
<!-- Created with Inkscape (http://www.inkscape.org/) -->

<svg
   xmlns:dc="http://purl.org/dc/elements/1.1/"
   xmlns:cc="http://creativecommons.org/ns#"
   xmlns:rdf="http://www.w3.org/1999/02/22-rdf-syntax-ns#"
   xmlns:svg="http://www.w3.org/2000/svg"
   xmlns="http://www.w3.org/2000/svg"
   xmlns:xlink="http://www.w3.org/1999/xlink"
   xmlns:sodipodi="http://sodipodi.sourceforge.net/DTD/sodipodi-0.dtd"
   xmlns:inkscape="http://www.inkscape.org/namespaces/inkscape"
   width="210mm"
   height="297mm"
   viewBox="0 0 744.09448819 1052.3622047"
   id="svg2"
   version="1.1"
   inkscape:version="0.91 r13725"
   inkscape:export-xdpi="4"
   inkscape:export-ydpi="4"
   sodipodi:docname="server-user.svg">
  <defs
     id="defs4">
    <linearGradient
       inkscape:collect="always"
       xlink:href="#linearGradient4259"
       id="linearGradient4265"
       x1="36.360001"
       y1="399.99997"
       x2="363.59998"
       y2="18.179979"
       gradientUnits="userSpaceOnUse"
       gradientTransform="translate(192.99855,322.36222)" />
    <linearGradient
       inkscape:collect="always"
       id="linearGradient4259">
      <stop
         style="stop-color:#4e505d;stop-opacity:1;"
         offset="0"
         id="stop4261" />
      <stop
         style="stop-color:#7a859c;stop-opacity:1"
         offset="1"
         id="stop4263" />
    </linearGradient>
  </defs>
  <sodipodi:namedview
     id="base"
     pagecolor="#ffffff"
     bordercolor="#666666"
     borderopacity="1.0"
     inkscape:pageopacity="0.0"
     inkscape:pageshadow="2"
     inkscape:zoom="0.70710678"
     inkscape:cx="465.15081"
     inkscape:cy="516.76111"
     inkscape:document-units="px"
     inkscape:current-layer="layer1"
     showgrid="false"
     showguides="true"
     inkscape:guide-bbox="true"
     inkscape:window-width="1600"
     inkscape:window-height="837"
     inkscape:window-x="-4"
     inkscape:window-y="-4"
     inkscape:window-maximized="1"
     inkscape:snap-bbox="true"
     inkscape:bbox-nodes="true">
    <sodipodi:guide
       position="560,730.00002"
       orientation="0,1"
       id="guide3338" />
    <sodipodi:guide
       position="560,330.00001"
       orientation="0,1"
       id="guide3340" />
    <sodipodi:guide
       position="190,475.00001"
       orientation="1,0"
       id="guide3344" />
    <sodipodi:guide
       position="593.00001,570.00001"
       orientation="1,0"
       id="guide3346" />
    <inkscape:grid
       type="xygrid"
       id="grid3440" />
    <sodipodi:guide
       position="-111.01577,704.98548"
       orientation="0,1"
       id="guide4151" />
    <sodipodi:guide
       position="54.25,355.00001"
       orientation="0,1"
       id="guide4153" />
    <sodipodi:guide
       position="215,442.00001"
       orientation="1,0"
       id="guide4155" />
    <sodipodi:guide
       position="564.97832,467.39759"
       orientation="1,0"
       id="guide4157" />
  </sodipodi:namedview>
  <metadata
     id="metadata7">
    <rdf:RDF>
      <cc:Work
         rdf:about="">
        <dc:format>image/svg+xml</dc:format>
        <dc:type
           rdf:resource="http://purl.org/dc/dcmitype/StillImage" />
        <dc:title>server user</dc:title>
        <dc:date>June 2015</dc:date>
        <dc:creator>
          <cc:Agent>
            <dc:title>Johannes Hechler</dc:title>
          </cc:Agent>
        </dc:creator>
        <dc:rights>
          <cc:Agent>
            <dc:title>Johannes Hechler</dc:title>
          </cc:Agent>
        </dc:rights>
        <dc:publisher>
          <cc:Agent>
            <dc:title>RRZE</dc:title>
          </cc:Agent>
        </dc:publisher>
        <dc:contributor>
          <cc:Agent>
            <dc:title>Ute Weber, Hendrik Eggers, Joanna Barbach</dc:title>
          </cc:Agent>
        </dc:contributor>
        <dc:subject>
          <rdf:Bag>
            <rdf:li>server</rdf:li>
            <rdf:li>rdbms</rdf:li>
            <rdf:li>dba</rdf:li>
            <rdf:li>server</rdf:li>
            <rdf:li>icon</rdf:li>
            <rdf:li>user</rdf:li>
          </rdf:Bag>
        </dc:subject>
        <cc:license
           rdf:resource="http://creativecommons.org/licenses/by-sa/3.0/" />
      </cc:Work>
      <cc:License
         rdf:about="http://creativecommons.org/licenses/by-sa/3.0/">
        <cc:permits
           rdf:resource="http://creativecommons.org/ns#Reproduction" />
        <cc:permits
           rdf:resource="http://creativecommons.org/ns#Distribution" />
        <cc:requires
           rdf:resource="http://creativecommons.org/ns#Notice" />
        <cc:requires
           rdf:resource="http://creativecommons.org/ns#Attribution" />
        <cc:permits
           rdf:resource="http://creativecommons.org/ns#DerivativeWorks" />
        <cc:requires
           rdf:resource="http://creativecommons.org/ns#ShareAlike" />
      </cc:License>
    </rdf:RDF>
  </metadata>
  <g
     inkscape:label="Ebene 1"
     inkscape:groupmode="layer"
     id="layer1">
    <g
       id="g4217">
      <path
         inkscape:connector-curvature="0"
         id="rect4214"
         d="m 192.99855,322.3622 400.00146,0 0,399.99998 -400.00146,0 z"
         style="opacity:1;fill:none;fill-opacity:1;stroke:none;stroke-width:35;stroke-linejoin:round;stroke-miterlimit:4;stroke-dasharray:none;stroke-opacity:1" />
      <path
         id="rect4221"
         d="M 227.65234 336.36133 C 216.17567 336.36133 206.93555 345.60145 206.93555 357.07812 L 206.93555 419.22461 C 206.93555 430.70128 216.17567 439.94141 227.65234 439.94141 L 247.53711 439.94141 L 247.53711 470.79883 L 228.02734 470.79883 C 216.55067 470.79883 207.31055 480.03896 207.31055 491.51562 L 207.31055 553.66211 C 207.31055 565.13878 216.55067 574.37891 228.02734 574.37891 L 247.53711 574.37891 L 247.53711 604.79883 L 228.02734 604.79883 C 216.55067 604.79883 207.31055 614.03896 207.31055 625.51562 L 207.31055 687.66211 C 207.31055 699.13878 216.55067 708.37891 228.02734 708.37891 L 413.39453 708.37891 C 412.017 699.23694 411.28125 689.77942 411.28125 680.08594 C 411.28125 652.54044 416.85734 626.61481 427.13281 604.79883 L 271.21875 604.79883 L 271.21875 574.37891 L 446.91602 574.37891 C 452.1842 568.4386 457.97931 563.17093 464.26562 558.68555 C 454.23469 547.46859 448.09766 532.72777 448.09766 516.63281 C 448.09766 498.6561 455.75418 482.37144 467.94336 470.79883 L 271.21875 470.79883 L 271.21875 439.94141 L 514.73828 439.94141 L 514.73828 453.2793 C 523.1441 453.67037 531.14202 455.72384 538.41797 459.10156 L 538.41797 439.94141 L 557.59766 439.94141 C 569.07433 439.94141 578.31445 430.70128 578.31445 419.22461 L 578.31445 357.07812 C 578.31445 345.60145 569.07433 336.36133 557.59766 336.36133 L 227.65234 336.36133 z M 555.60547 470.79883 C 567.79444 482.37147 575.45117 498.65585 575.45117 516.63281 C 575.45117 533.0894 569.03952 548.13388 558.60547 559.43945 C 562.90446 562.57752 566.96202 566.09852 570.7793 569.94922 C 575.59605 566.16225 578.68945 560.29178 578.68945 553.66211 L 578.68945 491.51562 C 578.68945 480.03895 569.44933 470.79883 557.97266 470.79883 L 555.60547 470.79883 z M 511.77539 488.20508 C 495.67954 488.20508 483.09766 500.77685 483.09766 516.63281 C 483.09766 532.48878 495.67954 545.06055 511.77539 545.06055 C 527.87124 545.06055 540.45117 532.48878 540.45117 516.63281 C 540.45117 500.77685 527.87124 488.20508 511.77539 488.20508 z M 536.2832 586.70508 C 529.50943 589.24607 522.2712 590.85538 514.73828 591.2168 L 514.73828 604.79883 L 468.20508 604.79883 C 455.39488 623.0646 446.28125 649.71281 446.28125 680.08594 C 446.28125 688.39576 447.05132 696.39279 448.26758 704.10938 C 448.77089 704.39629 449.43358 704.76034 450.55078 704.83984 A 17.50175 17.50175 0 0 1 450.72852 704.86133 L 569.55664 704.86133 C 571.23983 703.72821 572.74283 702.35163 574.02344 700.78516 C 574.94622 694.10165 575.5 687.20507 575.5 680.08398 C 575.5 649.726 566.39886 623.10971 553.60547 604.79883 L 538.41797 604.79883 L 538.41797 588.31445 C 537.71 587.75628 536.99853 587.21686 536.2832 586.70508 z "
         style="opacity:1;fill:url(#linearGradient4265);fill-opacity:1;stroke:none;stroke-width:35;stroke-linejoin:round;stroke-miterlimit:4;stroke-dasharray:none;stroke-opacity:1" />
      <rect
         ry="10.5"
         y="396.36224"
         x="226.99855"
         height="21"
         width="78.903175"
         id="rect4229"
         style="opacity:1;fill:#ffffff;fill-opacity:1;stroke:none;stroke-width:35;stroke-linejoin:round;stroke-miterlimit:4;stroke-dasharray:none;stroke-opacity:1" />
      <rect
         style="opacity:1;fill:#ffffff;fill-opacity:1;stroke:none;stroke-width:35;stroke-linejoin:round;stroke-miterlimit:4;stroke-dasharray:none;stroke-opacity:1"
         id="rect4239"
         width="78.903175"
         height="21"
         x="227.33865"
         y="664.79968"
         ry="10.5" />
      <rect
         ry="10.5"
         y="530.79968"
         x="227.33865"
         height="21"
         width="78.903175"
         id="rect4245"
         style="opacity:1;fill:#ffffff;fill-opacity:1;stroke:none;stroke-width:35;stroke-linejoin:round;stroke-miterlimit:4;stroke-dasharray:none;stroke-opacity:1" />
      <g
         transform="matrix(1.1129027,0,0,1.1129027,-1.0100631,-19.294474)"
         id="g4177">
        <path
           style="fill:#99b000;fill-opacity:1;stroke:none;stroke-width:41.15159225;stroke-linecap:round;stroke-linejoin:round;stroke-opacity:1"
           d="m 436.53243,526.46105 c -0.0742,0.0657 -0.14189,0.13624 -0.2185,0.19998 l -4.13543,2.24054 c -26.97289,15.97848 -45.98848,54.51929 -45.98848,99.52691 0,9.66704 0.88174,19.03345 2.52692,27.94442 2.44031,5.45919 8.57165,9.46045 15.91833,9.98306 l 0,0.0605 109.19272,0 0,-0.005 c 8.24593,-0.1164 15.1909,-4.60343 17.52436,-10.7546 1.56139,-8.69639 2.39608,-17.81949 2.39608,-27.22843 0,-47.11835 -20.84292,-87.14877 -49.83752,-101.62302 -6.9225,3.8867 -14.90216,6.11674 -23.38804,6.11674 -8.73322,0 -16.93049,-2.36165 -23.99044,-6.46115 z"
           id="path2176"
           inkscape:connector-curvature="0"
           sodipodi:nodetypes="cccsccccccscscc" />
        <ellipse
           style="fill:#99b000;fill-opacity:1;stroke:none;stroke-width:14;stroke-miterlimit:4;stroke-dasharray:none;stroke-opacity:1"
           id="circle2187-6"
           cy="481.55768"
           cx="460.76343"
           rx="41.491879"
           ry="41.268055" />
      </g>
    </g>
  </g>
</svg>
